X: 2038
T: New la Monmoutn.
%R: _
B: Henry Playford "Apollo's Banquet", London 1687 (5th Edition)
F: https://archive.org/details/apollosbanquetco01rugg
Z: 2017 John Chambers <jc:trillian.mit.edu>
M: 3/2
L: 1/8
K: Am
% - - - - - - - - - -
a |\
a3g fedc B3A | ^G2E2 c3B B3A | A6 A2 c3d | e3g f2e2 a3b | ^g6 a2 a3(g/a/) | b3a g3^f  ^f3e | ^d6 ed c3B | g6 g2 a3b |
^f3f g2(fe) e3^d | e6- e4 ::[M:3/4] e2f2g2 | g6 | agfedf | e3dc2 | e3Bc2 | ^G3GA2 | B2c3d | B6 |
e2a2d2 | g6 | (ag)(fe)(de) | f3ge2 | a3b^g2 | a2e3d | (cB)B3A | A6 ::[M:C|] AB | c2d2 e3f | d2 c4 gf |
e2a2 b3c' | ^g6 :: za | b2c'2 e3e | f2d2 g3g | g2a2 ^f3g | g4 zcde | f2 f4 gd | e6 ^f(e/f/) |
gfe2 b2^g>a | a6 ::[M:3/4]\
a2^g2a2 | A3 | (fe)(dc)(Bc) | c3BA2 | a2^g2a2 | b2e2f2 | d3cBc | B6 :: g3fe2 |
a3^g^fg | a^fb3e | ^d3cB2 | g3ab2 | a3(g/a/)b^f | g^fg3a | ^f3e=fd | g4c2 | d3ef2 | cBB3A | HA6 |]
% - - - - - - - - - -

%%sep 1 1 500
%%sep 1 1 500

